X:772
T:When The Cock Crows It Is Day
M:6/8
L:1/8
K:G
D|"G"GAB BAG|(d3 d2) D|GAB BAG|"D"(A3 A2) D|"G"GAB BAG|
Bcd "C"efg|"G"dBG "D"AFD|"G"(G3 G2):||:d/|"G"gdd gdB|"C"(c3 c2) d|
"G"gdd gdB|"D"(A3 A2) d|"G"gdd gdB|"C"c2 d efg|"G"dBG "D"AFD|"G"G3 G2:|
